X:316
T: LASST UNS IHR BRUEDER WEISHEIT ERHOEHN
N: F0544
O: Europa, Mitteleuropa, Deutschland
R: Studenten - Lied
M: 3/4
L: 1/8
K: G
 | G2BGdB | A2F2D2 |
G2BGdB | A4z2 |
e2e2e2 | d3cB2 |
dcB2A2 | GABcd2 |
e2e2e2 | d3cB2 |
dcB2A2 | G4z2

@@@ Tune index: 5747
